src/img/Logo.svg

<svg xmlns="http://www.w3.org/2000/svg" style="isolation:isolate" viewBox="0 0 500 500" width="500" height="500"><defs><clipPath id="a"><path d="M0 0h500v500H0z"/></clipPath></defs><g clip-path="url(#a)" fill="#568AF2"><path d="M205.819 195.202c0-8.142 6.673-14.753 14.891-14.753 8.219 0 14.891 6.611 14.891 14.753 0 8.143-6.672 14.753-14.891 14.753-8.218 0-14.891-6.61-14.891-14.753zm57.437 0c0-8.142 6.673-14.753 14.891-14.753 8.219 0 14.891 6.611 14.891 14.753 0 8.143-6.672 14.753-14.891 14.753-8.218 0-14.891-6.61-14.891-14.753z"/><path d="M469.205 226.268c7.727 13.301 7.727 34.067 0 47.464l-88.861 152.536C372.618 439.569 354.363 450 338.909 450H156.455c-1.062-.096-6.857-.383-16.226-5.455-6.568-3.54-15.551-9.665-20.573-18.277L30.795 273.732c-7.727-13.301-7.727-34.163 0-47.464l88.861-152.536C127.382 60.431 145.637 50 161.091 50h177.818c15.454 0 33.709 10.431 41.435 23.732l88.861 152.536zm-306.652-8.659c-.009.015-.013.031-.013.047v217.703c70.895-29.665 174.147-104.115 176.369-210.335v-7.081c0-.013-.003-.026-.01-.038-.633-48.522-39.9-87.717-88.175-87.717-48.176 0-87.381 39.036-88.171 87.421zm296.22 50.094c5.602-9.665 5.602-25.933.097-35.502L370.01 79.665c-5.602-9.569-19.801-17.703-31.005-17.703H161.188c-11.204 0-25.402 8.134-31.004 17.703L41.323 232.201c-5.602 9.665-5.602 25.933 0 35.502l88.861 152.536c2.801 4.881 8.499 9.761 15.936 13.78 1.642.957 3.091 1.531 4.443 2.105V217.656c0-25.072 9.563-47.847 25.113-65.264l8.403-8.325c17.579-15.407 40.567-24.88 65.873-24.88 25.306 0 48.293 9.473 65.872 24.88l8.5 8.421c15.55 17.416 25.113 40.287 25.113 65.263l-10.528 220.192c11.204 0 25.402-8.134 31.004-17.704l88.86-152.536z"/></g></svg>

<?xml version="1.0" standalone="no"?><!-- Generator: Gravit.io --><svg xmlns="http://www.w3.org/2000/svg" xmlns:xlink="http://www.w3.org/1999/xlink" style="isolation:isolate" viewBox="0 0 500 500" width="500" height="500"><defs><clipPath id="_clipPath_1agPTEsozZq0a1mMkGvzbNo7jSQ1YVb2"><rect width="500" height="500"/></clipPath></defs><g clip-path="url(#_clipPath_1agPTEsozZq0a1mMkGvzbNo7jSQ1YVb2)"><path d=" M 205.819 195.202 C 205.819 187.06 212.492 180.449 220.71 180.449 C 228.929 180.449 235.601 187.06 235.601 195.202 C 235.601 203.345 228.929 209.955 220.71 209.955 C 212.492 209.955 205.819 203.345 205.819 195.202 Z " fill="rgb(86,138,242)"/><path d=" M 263.256 195.202 C 263.256 187.06 269.929 180.449 278.147 180.449 C 286.366 180.449 293.038 187.06 293.038 195.202 C 293.038 203.345 286.366 209.955 278.147 209.955 C 269.929 209.955 263.256 203.345 263.256 195.202 Z " fill="rgb(86,138,242)"/><path d=" M 469.205 226.268 C 476.932 239.569 476.932 260.335 469.205 273.732 L 380.344 426.268 C 372.618 439.569 354.363 450 338.909 450 L 156.455 450 C 155.393 449.904 149.598 449.617 140.229 444.545 C 133.661 441.005 124.678 434.88 119.656 426.268 L 30.795 273.732 C 23.068 260.431 23.068 239.569 30.795 226.268 L 119.656 73.732 C 127.382 60.431 145.637 50 161.091 50 L 338.909 50 C 354.363 50 372.618 60.431 380.344 73.732 L 469.205 226.268 L 469.205 226.268 Z  M 162.553 217.609 C 162.544 217.624 162.54 217.64 162.54 217.656 L 162.54 219.099 L 162.54 219.099 L 162.54 435.359 L 162.54 435.359 C 233.435 405.694 336.687 331.244 338.909 225.024 L 338.909 219.099 L 338.909 219.099 L 338.909 217.943 C 338.909 217.93 338.906 217.917 338.899 217.905 C 338.266 169.383 298.999 130.188 250.724 130.188 C 202.548 130.188 163.343 169.224 162.553 217.609 Z  M 458.773 267.703 C 464.375 258.038 464.375 241.77 458.87 232.201 L 370.01 79.665 C 364.408 70.096 350.209 61.962 339.005 61.962 L 161.188 61.962 C 149.984 61.962 135.786 70.096 130.184 79.665 L 41.323 232.201 C 35.721 241.866 35.721 258.134 41.323 267.703 L 130.184 420.239 C 132.985 425.12 138.683 430 146.12 434.019 C 147.762 434.976 149.211 435.55 150.563 436.124 L 150.563 217.656 C 150.563 192.584 160.126 169.809 175.676 152.392 L 184.079 144.067 C 201.658 128.66 224.646 119.187 249.952 119.187 C 275.258 119.187 298.245 128.66 315.824 144.067 L 324.324 152.488 C 339.874 169.904 349.437 192.775 349.437 217.751 L 338.909 437.943 C 350.113 437.943 364.311 429.809 369.913 420.239 L 458.773 267.703 L 458.773 267.703 Z " fill="rgb(86,138,242)"/></g></svg>
